icons/actions/22/edit-guides.svg

<svg xmlns="http://www.w3.org/2000/svg" viewBox="0 0 22 22">
  <defs id="defs3051">
    <style type="text/css" id="current-color-scheme">
      .ColorScheme-Text {
        color:#232629;
      }
      </style>
  </defs>
 <path 
    style="fill:currentColor;fill-opacity:1;stroke:none" 
	d="m4 3v16h1 8 1v-.009766l.007812.009766 3.992188-3.992188v-.007812-1.40625-10.59375h-1-12-1m1 1h1v11h-1v-11m2 0h10v10h-4v1h-6v-11m3 1l-2 2 2 2v-4m-5 11h1v2h-1v-2m2 0h6v2h-6v-2"
    class="ColorScheme-Text"
    />  
</svg>

<!DOCTYPE svg>
<svg viewBox="0 0 22 22" version="1.1" xmlns="http://www.w3.org/2000/svg">
    <defs>
        <style type="text/css" id="current-color-scheme">
            .ColorScheme-Text {
                color:#232629;
            }
        </style>
    </defs>
    <path class="ColorScheme-Text" style="fill:currentColor; fill-opacity:1; stroke:none" d="M 4 3 L 4 19 L 18 19 L 18 7 L 14 3 L 4.00019 3.00001 Z M 5.00019 4.00001 L 6.00019 4.00001 L 6.00019 15 L 5.00019 15 L 5.00019 4.00001 Z M 7.00019 4.00001 L 13 4 L 13 8 L 17 8 L 16.992 15 L 7 15 L 7 4.00001 L 7.00019 4.00001 Z M 10.0002 5.00001 L 8.00019 7.00001 L 10.0002 9.00001 L 10.0002 5.00001 Z M 5.00019 16 L 6.00019 16 L 6.00019 18 L 5.00019 18 L 5.00019 16 Z M 7.00019 16 L 16.9922 16 L 16.9922 18 L 7.00019 18 L 7.00019 16 Z"/>
</svg>
